usr/share/icons/biglinux-icons-material/symbolic/actions/image-straighten-symbolic.svg

<svg width="16" height="16" version="1.1" xmlns="http://www.w3.org/2000/svg">
 <path d="m1 8v1h1v-1zm2 0v1h1v-1zm2 0v1h1v-1zm2 0v1h1v-1zm2 0v1h1v-1zm2 0v1h1v-1zm2 0v1h1v-1zm2 0v1h1v-1z" fill="#363636"/>
 <path d="m13.031 1.2871c-0.13284-0.0084062-0.26906-0.0033798-0.40625 0.015625l-10.896 1.5078c-1.0975 0.15204-1.8591 1.1583-1.707 2.2559l0.26758 1.9336h1.0098l-0.28711-2.0703c-0.076019-0.54876 0.30476-1.0509 0.85352-1.127l10.896-1.5098c0.54876-0.076019 1.0509 0.30476 1.127 0.85352l0.53516 3.8535h1.0098l-0.55274-3.9922c-0.13303-0.96033-0.91973-1.6619-1.8496-1.7207zm-8.248 3.1504c-0.099465-0.0063933-0.20016-0.0024907-0.30273 0.011719-0.82059 0.11368-1.3949 0.87081-1.2812 1.6914 0.047228 0.34092 0.20969 0.6354 0.4375 0.85938h2.0996c0.32479-0.32115 0.50304-0.78424 0.43555-1.2715-0.099466-0.71802-0.69242-1.2463-1.3887-1.291zm5.5566 2.2285-0.21875 0.33398h0.57031l-0.35156-0.33398zm-9.6348 3.334 0.41406 2.9922c0.15204 1.0975 1.1583 1.8571 2.2559 1.7051l10.896-1.5078c1.0975-0.15204 1.8591-1.1583 1.707-2.2559l-0.12891-0.93359h-1.0098l0.14844 1.0703-1.1289-1.0703h-5.6953l-0.72266 1.1055-1.875-1.1055h-1.2969l-2.1582 2.8535-0.39648-2.8535h-1.0098z" fill="#363636"/>
</svg>

<svg xmlns="http://www.w3.org/2000/svg" width="16" height="16"><path fill="#dedede" d="M1 8v1h1V8zm2 0v1h1V8zm2 0v1h1V8zm2 0v1h1V8zm2 0v1h1V8zm2 0v1h1V8zm2 0v1h1V8zm2 0v1h1V8zM13.031 1.287a2.029 2.029 0 0 0-.406.016L1.729 2.81A1.996 1.996 0 0 0 .022 5.066L.289 7H1.3l-.287-2.07a.997.997 0 0 1 .854-1.127l10.896-1.51a.997.997 0 0 1 1.127.853L14.424 7h1.01l-.553-3.992a1.994 1.994 0 0 0-1.85-1.721zm-8.248 3.15A1.5 1.5 0 0 0 3.199 6.14c.047.342.21.636.438.86h2.1a1.496 1.496 0 0 0-.954-2.563zm5.557 2.229L10.12 7h.571l-.351-.334zM.705 10l.414 2.992a1.995 1.995 0 0 0 2.256 1.705L14.27 13.19a1.996 1.996 0 0 0 1.707-2.256l-.13-.934H14.84l.148 1.07L13.86 10H8.163l-.722 1.106L5.566 10H4.269L2.11 12.854 1.714 10H.704z"/></svg>
